X:1683
T:Bobby Casey's #1
R:Reel
M:4/4
L:1/8
K:C
dAGE F3 A | cAGc A~d3 | dAGE F3 d | (efde) cA ~d2 |
dAGE F3 A | cAGc A~d3  | dAGE F3 d | (efde) cA ~d2 |
(Ad) (3ddd cAGD | (3EFG AB cAGc | (Ad) (3ddd cAGA | (3Bcd eg fd{e}d2 |
d2 (3ddd cAGD | EGAB cAGc | (Ad) (3ddd cAGA | (3Bcd eg fd{e}dc |
d2 (fd adfd) | c2 (ec gcec) | d2 (fd adfd) | dcAG Ad~d2 |
d2 (fd adfd) | Ac{d}cB cdeg | a3 g f3 e | dcAG Ad{e}dc |]


